X: 305649
M: 6/8
L: 1/8
K: C
[|\
e2z c2z | Gce g3 | g^fg ag=f | e6 |\
e2z A2z | A^cd f3 | GBc d2e | c3 z2"^D.C."z |]
K: Bb
g2z g2z | g^fg =e2d | c=Bc edc | B3 B2 |]
e2z c2z | Gce g3 | ^cde agf | e3 z2z |\
c2z c2z | c2d _e3 | =edc BA^G | A4 z |]
!/!B3 B2z | !/!B3 B2z | g6 | g^fg ag=f |\
e2g c'3 | d2f a3 | gfe dcB | c6 "D.C."y |]


